assets/icons/get involved.svg

<svg xmlns="http://www.w3.org/2000/svg" width="512" height="512" viewBox="0 0 512 512"><path d="M167 32.472C29.275 52.768-45.25 196.607 26.907 302.863c5.148 7.58 6.375 1.211-10.409 54.014C-.614 410.71-.863 412.845 9.241 419.005c7.161 4.367 8.02 4.052 57.666-21.141l45.593-23.137 9.636 3.61c11.629 4.357 24.906 7.869 38.347 10.145l9.984 1.69 8.016 7.664c53.654 51.292 141.018 67.677 212.949 39.937l7.997-3.084 45.628 23.156c49.686 25.214 50.54 25.527 57.702 21.16 10.12-6.17 9.867-8.341-7.254-62.041-16.853-52.861-15.642-46.144-9.915-54.997 68.822-106.388-1.731-247.179-134.587-268.571l-9.496-1.529-7.504-7.237C292.751 44.847 225.517 23.848 167 32.472m14.5 29.544C58.093 70.899-9.684 196.01 56.909 292c8.959 12.913 9.022 12.04-3.718 51.5-5.504 17.05-9.863 31.149-9.686 31.33.178.182 14.947-7.13 32.822-16.25 36.879-18.814 33.91-18.097 49.457-11.942 18.713 7.407 17.588 7.655 12.501-2.751-51.918-106.207 22.756-233.223 147.54-250.956l8.326-1.183-4.326-2.932c-23.327-15.81-70.265-29.282-96.325-27.645-1.1.069-6.5.449-12 .845m122 59.993c-112.595 8.187-182.892 116.481-136.446 210.196 37.852 76.373 132.95 108.509 219.662 74.229 14.967-5.917 12.16-6.614 48.938 12.152 38.701 19.748 35.222 22.288 22.719-16.586-12.487-38.824-12.357-36.691-3.058-50.122 72.624-104.891-16.419-239.714-151.815-229.869m-55.259 135.986c-13.008 7.931-7.447 27.998 7.759 27.998 8.532 0 14.993-6.461 14.993-14.993s-6.461-14.993-14.993-14.993c-2.73 0-5.782.782-7.759 1.988m60 0c-13.008 7.931-7.447 27.998 7.759 27.998 8.532 0 14.993-6.461 14.993-14.993s-6.461-14.993-14.993-14.993c-2.73 0-5.782.782-7.759 1.988m60 0c-13.008 7.931-7.447 27.998 7.759 27.998 8.532 0 14.993-6.461 14.993-14.993s-6.461-14.993-14.993-14.993c-2.73 0-5.782.782-7.759 1.988" fill="#040404" fill-rule="evenodd"/></svg>

<svg xmlns="http://www.w3.org/2000/svg" width="512" height="512" viewBox="0 0 512 512" version="1.1"><path d="" stroke="none" fill="#080404" fill-rule="evenodd"/><path d="M 167 32.472 C 29.275 52.768, -45.250 196.607, 26.907 302.863 C 32.055 310.443, 33.282 304.074, 16.498 356.877 C -0.614 410.710, -0.863 412.845, 9.241 419.005 C 16.402 423.372, 17.261 423.057, 66.907 397.864 L 112.500 374.727 122.136 378.337 C 133.765 382.694, 147.042 386.206, 160.483 388.482 L 170.467 390.172 178.483 397.836 C 232.137 449.128, 319.501 465.513, 391.432 437.773 L 399.429 434.689 445.057 457.845 C 494.743 483.059, 495.597 483.372, 502.759 479.005 C 512.879 472.835, 512.626 470.664, 495.505 416.964 C 478.652 364.103, 479.863 370.820, 485.590 361.967 C 554.412 255.579, 483.859 114.788, 351.003 93.396 L 341.507 91.867 334.003 84.630 C 292.751 44.847, 225.517 23.848, 167 32.472 M 181.500 62.016 C 58.093 70.899, -9.684 196.010, 56.909 292 C 65.868 304.913, 65.931 304.040, 53.191 343.500 C 47.687 360.550, 43.328 374.649, 43.505 374.830 C 43.683 375.012, 58.452 367.700, 76.327 358.580 C 113.206 339.766, 110.237 340.483, 125.784 346.638 C 144.497 354.045, 143.372 354.293, 138.285 343.887 C 86.367 237.680, 161.041 110.664, 285.825 92.931 L 294.151 91.748 289.825 88.816 C 266.498 73.006, 219.560 59.534, 193.500 61.171 C 192.400 61.240, 187 61.620, 181.500 62.016 M 303.500 122.009 C 190.905 130.196, 120.608 238.490, 167.054 332.205 C 204.906 408.578, 300.004 440.714, 386.716 406.434 C 401.683 400.517, 398.876 399.820, 435.654 418.586 C 474.355 438.334, 470.876 440.874, 458.373 402 C 445.886 363.176, 446.016 365.309, 455.315 351.878 C 527.939 246.987, 438.896 112.164, 303.500 122.009 M 248.241 257.995 C 235.233 265.926, 240.794 285.993, 256 285.993 C 264.532 285.993, 270.993 279.532, 270.993 271 C 270.993 262.468, 264.532 256.007, 256 256.007 C 253.270 256.007, 250.218 256.789, 248.241 257.995 M 308.241 257.995 C 295.233 265.926, 300.794 285.993, 316 285.993 C 324.532 285.993, 330.993 279.532, 330.993 271 C 330.993 262.468, 324.532 256.007, 316 256.007 C 313.270 256.007, 310.218 256.789, 308.241 257.995 M 368.241 257.995 C 355.233 265.926, 360.794 285.993, 376 285.993 C 384.532 285.993, 390.993 279.532, 390.993 271 C 390.993 262.468, 384.532 256.007, 376 256.007 C 373.270 256.007, 370.218 256.789, 368.241 257.995" stroke="none" fill="#040404" fill-rule="evenodd"/></svg>
